X:1
T:Rêverie
T:Debussy
C:Debussy
%%score { ( 1 4 6 ) | ( 2 3 5 ) }
L:1/8
Q:1/4=110
M:4/4
K:F
V:1 treble nm="Piano" snm="Pno."
V:4 treble 
V:6 treble 
V:2 treble 
V:3 treble 
V:5 treble 
V:1
!pp!"_trèsdoux et tres expressif""^Antdantino sans lentenr" z8 | z8 | (g4 d4- | d2 ef g2 ed | %4
 (3e2 c2 e2 d4-) | d4 (B2 d2 | e2 f2 c4- | c4[Q:1/4=102] G4[Q:1/4=80] | A8-)[Q:1/4=110] | %9
 A8[Q:1/4=96] |"_meno"[Q:1/4=110] (a4 e4-!p! | e2 ce d2 BG) |!mf! (a4 e4- | e2 ce d2 BG) | %14
"_dim."!>(! (g4 d4-!>)! | d2[Q:1/4=106] Bd c2 AG | A2 EA F2 DF[Q:1/4=110] | %17
 D4 C4)[Q:1/4=102][Q:1/4=80] |!pp![Q:1/4=110] ([cc']4 [Gg]4-) | ([Gg]2 [Aa][Bb] [cc']2 [Aa][Gg]) | %20
 (3([Aa]2 [Ff]2 [Aa]2) [G_eg]4- |"_poco cresc."!<(! ([Geg]4 [_Ec_e]2 [Gg]2!<)! | %22
 [Aa]2 [Bb]2 [Fdf]4-) | [Fdf]4 ([Aa]2 [Bb]2 |"_più cresc."!<(! [cc']2 [dd']2 [Ada]4-!<)! | %25
 [Ada]4 [Bb]2 [dd']2) |!f! ([f^c'f']4 [^cc']4) |!p! x2 (de f2 fa) |!f! ([f^c'f']4 [^cc']4) | %29
!p! x2 (de f2 fa) |"_dim."!>(! f2 (DE F2 FA!>)! | F4[Q:1/4=108] D4- |[Q:1/4=104] [=B,D]2 C2 c4) | %33
[Q:1/4=106] cegc' gec[Q:1/4=80]G |[Q:1/4=110] (_ecGc) (ecGc)"^espress." | (_ecGc) (ecGc) | %36
[Q:1/4=112] (a^fdf) (afdf) |[Q:1/4=110] (a^fdf) (dA^F[Q:1/4=80]A) |[Q:1/4=110] (_ecGc) (ecGc) | %39
!<(! (_ecGc) (gece)!<)! | (^g=e!<(!ce) (gece) | (^gece) (gcg!<)!e) | (acAc) (acAc) | %43
 (acAc) (acAc) |!>(! (=bf=Bf) (c'_bfb)!>)!"_dim." | (c'bfb) (c'beb) | %46
[Q:1/4=100]!p! (c'"_rit."acg) (d'a[Q:1/4=95]db | dADB A,2 G,2) | F,4 F4- | F4 A4 | %50
!p![Q:1/4=106] (.[df]2 .[=Be]2 .[Be]2 .[df]2 | .[df]2 .[=Be]2 .[Be]4) | %52
"_più" [DF]2 [=B,E]2 [B,E]2!>(! (3FAF!>)! | [=B,E]2 [_B,D]2[Q:1/4=90] C4 | %54
!p![Q:1/4=106] ([df]2 [=Be]2 [Be]2 (3fga | (3faf[Q:1/4=98] [=Be]2 [Be]4) | %56
"_più"[Q:1/4=106] (E2 [A,^C]2 [^A,C]2 [=B,E]2 | [=C^F]2 [^D^G]2[Q:1/4=96] [=B,E]4)[Q:1/4=80] | %58
[K:E]!pp![Q:1/4=108] ([Acf]2 [Bdg]2 [GBe]2 [egc']2 | %59
 [Acf]2 (3[Bdg]fg[Q:1/4=96] [GBe]2[Q:1/4=110] [EGB]2) | [DEG]2 [CEB]2 [B,EG]2 [G,CE]2 | %61
[Q:1/4=98] [A,DF]4[Q:1/4=86] [DAc]4 |[Q:1/4=106] [cf]2 [dg]2 [Be]2 [ec']2 | c2 d2 B2 e2 | %64
 (c'2 e'2 d'2 b2"^cresc." | c'2 e'2 f'2 b2) | (c'2 e'2 d'2!mf! b2 | %67
 c'2 e'2[Q:1/4=96] f'2[Q:1/4=60] b2) |[K:C]!p! (3(g'[Q:1/4=108]gg' (3gg'g) (3(g'gg' (3gg'g) | %69
 (3(g'gg' (3gg'g) (3(g'gg' (3gg'[Q:1/4=90]g) |"_più"[Q:1/4=106] ([A,D]2 [B,E]2 C2 A2!p! | %71
 D2 (3EDE C4) | d2 (3ede c4 |[Q:1/4=100] (3ceg (3_bc'e' (3g'[Q:1/4=96]e'c' (3bge | %74
[M:2/4]"^Cédez"[Q:1/4=86] (3c_B[Q:1/4=68]G (3E[Q:1/4=50][I:staff +1]C[Q:1/4=30]=B, | %75
[K:F][M:4/4][Q:1/4=110]"^Tempo I°"[I:staff -1] (g4[I:staff +1] d4-) | %76
[I:staff -1] z2 e(f[I:staff +1] g2) e(d |[I:staff -1] (3e2) c2 (e2[I:staff +1] d4-) | d4 B2 (d2 | %79
[I:staff -1] e2) (f2[I:staff +1] c4-) | c4 G4 |[I:staff -1] A8- | A8 |"_meno" (a4 e4- | %84
!<(! e2 ce d2 BG)!<)! |!p! (a4 e4- |!<(! e2 ce d2 BG)!<)! |!p! (g4 d4- |!<(! d2 Bd c2 AF!<)! | %89
 g4 d4- |[Q:1/4=102]"^\n" d2 Bd[Q:1/4=90]!>(! [Gc]2 [^Fd]2)!>)! | %91
"^un peu retenu"[Q:1/4=108]!>(! (!tenuto![DGB]2 !tenuto![^CEA]2 !tenuto![CEA]2 !tenuto![DGB]2!>)! | %92
 !tenuto![DGB]2 !tenuto![^CEA]2 !tenuto![CEA]4) | ([GB]2 [EA]2 [EA]2 (3BdB | A2 G2 [DF]4) | %95
"_più" ([gb]2!p! [ea]2 [ea]2 [gb]2 | [gb]2 [ea]2 [ea]4) | %97
!pp! ([gb]2[Q:1/4=102] [ea]2 [ea]2"_rit. e perdendosi"[Q:1/4=96] (3bd'b | %98
[Q:1/4=90] a4[Q:1/4=78] g4) |[Q:1/4=60] [af'a']8[Q:1/4=70][Q:1/4=60][Q:1/4=40] | %100
!ppp! !fermata![Aca]8 |] %101
V:2
 (B,CDG- GDCB,-) | (B,CDG- GDCB,-) | (B,CDG- GDCB,-) | (B,CDG- GDCB,-) | (B,CDG- GDCB,-) | %5
 (B,CDG- GDCB,) | (A,B,CF- FCB,A,) |[K:bass] (G,A,B,E- EB,A,G,) | F,,8 | F,,8 | %10
[K:bass] (D,,A,,D,F, A,CEC) | (A,F,A,C G,,D,G,B,) | (D,,A,,D,F, A,CEC) | (A,F,A,C) (G,,D,G,B,) | %14
 (C,,G,,E,G, B,DED) | (B,DB,G, F,,C,F,A,) | (A,,E,A,E, D,A,F,D,) | %17
 (G,,F,G,[I:staff -1][G,B,])[I:staff +1] (C,,G,,E,[I:staff -1][G,B,]) | %18
[I:staff +1] (F,,,F,,C,_E, G,A,C_E) | (G_ECA, G,_E,C,F,,) | (F,,,F,,C,_E, G,A,C_E) | %21
 (G_ECA, G,_E,C,F,,) | (B,,,F,,B,,D, F,B,DF) | (DB,F,D, B,,F,,B,,,F,,) | (B,,,F,,B,,D, F,B,DF) | %25
 (DB,F,D, B,,F,,B,,,F,,) | (G,,,G,,^C,F, A,^CFA) | (G,,D,F,A, DA,F,D,) | (G,,,G,,^C,F, A,^CFA) | %29
 (G,,D,F,A, DA,F,D,) | (G,,D,F,A, DA,F,D,) | (G,,D,F,A, =B,A,G,F,) | C,,G,,C,E, G,CEG | z8 | %34
!pp! (C2 B,A, G,4- | G,2 A,B, C2 C_E) | z2 (.A,2 .D,2 .A,,2 | .D,,4 D,,,4) |!pp! (C2 B,A, G,4- | %39
 G,2 A,B, C2 C_E) | =E8- | E4 ^D2 E2 |[K:treble]!mf! (G2 FE D4-) | (D4 E2 F2) | (F2 ED C4- | %45
 C4 D2 E2) |[K:bass] E2 DC B,4- | B,4 C,,C, B,E | (F,,,F,, C,A,- A,2) z2 | z8 | %50
[K:treble] ([DA]2 [E^G]2 [EG]2 [DA]2 | [DA]2 [E^G]2 [EG]4) | %52
[K:bass] [D,A,]2!p! [E,^G,]2 [E,G,]2 [D,A,]2 | G,,2 C,,2 F,,2 F,,,2 | %54
[K:treble] ([DA]2 [E^G]2 [EG]2 [DA]2 | [DA]2 [E^G]2 [EG]4) |[K:bass] ^G,2!p! ^F,2 =G,2 ^G,2 | %57
 A,2 =B,2 ^G,4 |[K:E] (B,,,2 B,,4 B,2- | B,2 B,,4 B,2-) | (B,2 B,,4 B,2- | B,2 B,,4 F,2) | %62
[K:treble] A2 B2 G2 B2 | A2 B2 G2 B2 | B6- B2 | B8 | (=G2 (3AGA F4) | (E2 (3FEF D4) | %68
[K:C] (D2 E2 C2) A2 | D2 (3EDE C2 A,2 |[K:bass] (3(F,G,F, (3G,F,G, (3E,G,E, (3G,E,G,) | %71
 (3(F,G,F, (3G,F,G,) (3(C,,G,,E, (3G,_B,C) |[K:treble] (3(FGF (3GFG)[K:bass] (3C,G,C x2 |!pp! z8 | %74
[M:2/4] x4 |[K:F][M:4/4][K:treble] (B,CDG) x4 | (B,CDG) x4 | (B,CDG) x4 | (B,CDG) x4 | %79
 (A,B,CF) x4 | (G,A,B,E) x4 |[K:bass] F,,8 | F,,8 |[K:bass] (D,,A,,!p!D,F, A,CEC | %84
 A,F,A,C G,,D,G,B,) | (D,,A,,D,F, A,CEC | A,F,A,C G,,D,G,B,) | (_E,,B,,_E,G, B,_EGE | %88
 B,G,_E,B,, _E,,C,F,A, | _E,,B,,_E,G, B,_EGE | B,G,_E,B,, A,,E,A,,D,,) |!p! !>!G,,,8 | G,,8 | %93
 D2 ^C2 C2 D2 | [A,^C]4 D,4[K:treble] | (d2 ^c2 c2 d2 | d2 ^c2 c4) | (E6 D2 | [CB]8) | %99
[K:bass] (F,,,F,,C,F, A, C2 F-) | F8 |] %101
V:3
 B,8 | B,8 | B,8 | x8 | x8 | x8 | x8 |[K:bass] x8 | F,,C,- C,6 | F,,C,- C,6 |[K:bass] x8 | x8 | %12
 x8 | x8 | x8 | x8 | x8 | x8 | x8 | x8 | x8 | x8 | x8 | x8 | x8 | x8 | x8 | x8 | x8 | x8 | x8 | %31
 x8 | x8 | x8 | x8 | x8 | x8 | x8 | x8 | x8 | x8 | x8 |[K:treble] [A,C]8- | [A,C]8 | %44
 [^G,=B,]4 [=G,_B,]4- | [G,B,]8 |[K:bass] [F,A,]4 !arpeggio![G,,D,]4- | [G,,D,]4 x4 | x8 | x8 | %50
[K:treble] x8 | x8 |[K:bass] x8 | F,2 E,2 [F,A,]4 |[K:treble] x8 | x8 |[K:bass] =B,,8- | %57
 B,,6 E,,2 |[K:E] x8 | x8 | x8 | x8 |[K:treble] B,8 | B,6 G2 | x8 | x8 | B4 x4 | B4 x4 | %68
[K:C] (B4 [Ec]4) | ([FB]4 [Ec]4) |[K:bass] G,,8 | x8 |[K:treble] G,4[K:bass] x4 | x8 |[M:2/4] x4 | %75
[K:F][M:4/4][K:treble] x8 | x8 | x8 | x8 | x8 | x8 |[K:bass] F,,C,- C,6 | F,,C,- C,6 |[K:bass] x8 | %84
 x8 | x8 | x8 | x8 | x8 | x8 | x8 | x8 | x8 | G,8 | x4 A,4[K:treble] | x8 | G6 F2 | d2 ^c2 c2 d2 | %98
 x8 |[K:bass] x8 | x8 |] %101
V:4
 x8 | x8 | x8 | x8 | x8 | x8 | x8 | x8 | z2 (A,F DA,CF) | z2 (A,F DA,CF) | x8 | x8 | x8 | x8 | x8 | %15
 x8 | x2 C2 x2 A,2 | x8 | (_e8 | !courtesy!_e4) x4 | _e4 x4 | x8 | d4 x4 | x4 d4 | f8 | x4 d4 | %26
 x8 | z2 A6 | x8 | z2 A6 | A2 x6 | x8 | x8 | x8 | [_EG]2 x2 [EG]2 x2 | [_EG]2 x2 [EG]2 x2 | [Ad]8 | %37
 [Ad]8 | [_EG]2 x2 [EG]2 x2 | [_EG]2 x2 [Gc]2 x2 | [^Gc]8 | [^Gc]8 | x8 | x8 | x4 c4- | c8 | x8 | %47
 x8 | x8 | x8 | x8 | x8 | x6 D2 | x8 | x6 d2 | d6 x2 | x8 | x8 |[K:E] x8 | x8 | x8 | x8 | x8 | %63
 f2 (3gfg e2 b2 | (e4 f4 | =g4 f4) | (e4 f4 | =g4 f4) |[K:C] f'4 e'4 | f'4 e'4 | x4 C4 | A,4 _B,4 | %72
 A2 =B2 _B4 | x8 |[M:2/4] x4 |[K:F][M:4/4] x4 (g'd'c'b) |[I:staff +1] d2 x2[I:staff -1] (g'd'c'b) | %77
 x4 (g'd'c'b) | x8 | x8 | z4 (e'bag) | z2 (A,F DA,CF) | z2 (A,F DA,CF) | x8 | x8 | x8 | x8 | x8 | %88
 x8 | x8 | x4 C4 | x8 | x8 | x8 | x8 | x8 | x8 | x2 z4 g2 | e8 | x8 | x8 |] %101
V:5
 x8 | x8 | x8 | x8 | x8 | x8 | x8 |[K:bass] x8 | x8 | x8 |[K:bass] x8 | x8 | x8 | x8 | x8 | x8 | %16
 x8 | x8 | x8 | x8 | x8 | x8 | x8 | x8 | x8 | x8 | x8 | x8 | x8 | x8 | x8 | x8 | x8 | x8 | x8 | %35
 x8 | [D^F]8 | x8 | x8 | x8 | x8 | x8 |[K:treble] x8 | x8 | x8 | x8 |[K:bass] x8 | x8 | x8 | x8 | %50
[K:treble] x8 | x8 |[K:bass] x8 | x8 |[K:treble] x8 | x8 |[K:bass] x8 | x8 |[K:E] x8 | x8 | x8 | %61
 x8 |[K:treble] x8 | x8 | (=G4 F4 | E4 D4) | x8 | x8 |[K:C] x8 | x8 |[K:bass] x8 | G,,8 | %72
[K:treble] x4[K:bass] x4 | x8 |[M:2/4] x4 |[K:F][M:4/4][K:treble] x8 | x8 | x8 | x8 | x8 | x8 | %81
[K:bass] x8 | x8 |[K:bass] x8 | x8 | x8 | x8 | x8 | x8 | x8 | x8 | x8 | x8 | x8 | %94
 x4 z2[K:treble] A2 | x8 | x8 | x8 | x8 |[K:bass] x8 | x8 |] %101
V:6
 x8 | x8 | x8 | x8 | x8 | x8 | x8 | x8 | x8 | x8 | x8 | x8 | x8 | x8 | x8 | x8 | x8 | x8 | x8 | %19
 x8 | x8 | x8 | x8 | x8 | x8 | x8 | x8 | x8 | x8 | x8 | x8 | x8 | x8 | x8 | x8 | x8 | x8 | x8 | %38
 x8 | x8 | x8 | x8 | x8 | x8 | x8 | x8 | x8 | x8 | x8 | x8 | x8 | x8 | x8 | x8 | x8 | z4 z2 =B,2- | %56
 B,2 x6 | x8 |[K:E] x8 | x8 | x8 | x8 | x8 | x8 | x8 | x8 | x8 | x8 |[K:C] x8 | x8 | x8 | x8 | %72
 x4 x2[I:staff +1] (3E[I:staff -1]G_B | x8 |[M:2/4] x4 |[K:F][M:4/4] x8 | x8 | x8 | z4 (g'd'c'b) | %79
 x4 (f'c'ba) | x8 | x8 | x8 | x8 | x8 | x8 | x8 | x8 | x8 | x8 | x8 | x8 | x8 | x6 G2 | E4 x4 | %95
 x8 | x8 | x8 | x8 | x8 | x8 |] %101

